SFASUI/public/images/modal-image1.svg

<svg width="220" height="110" viewBox="0 0 220 110" fill="none" xmlns="http://www.w3.org/2000/svg">
<path d="M85.4081 19.649C103.085 19.649 115.224 10.4925 123.741 10.4925C132.259 10.4925 150.148 15.3889 150.148 54.5733C150.148 93.7576 126.082 99.5076 116.714 99.5076C72.8424 99.5102 54.1025 19.649 85.4081 19.649Z" fill="#F5F3F7"/>
<path d="M141.945 24.3335C139.831 24.3335 138.111 22.6136 138.111 20.5001C138.111 18.3867 139.831 16.6668 141.945 16.6668C144.058 16.6668 145.778 18.3867 145.778 20.5001C145.778 22.6136 144.058 24.3335 141.945 24.3335ZM141.945 19.2224C141.239 19.2224 140.667 19.7974 140.667 20.5001C140.667 21.2029 141.239 21.7779 141.945 21.7779C142.65 21.7779 143.222 21.2029 143.222 20.5001C143.222 19.7974 142.65 19.2224 141.945 19.2224Z" fill="#ABA7AF"/>
<path d="M131 20.9998C129.346 20.9998 128 19.6538 128 17.9998C128 16.3458 129.346 14.9998 131 14.9998C132.654 14.9998 134 16.3458 134 17.9998C134 19.6538 132.654 20.9998 131 20.9998ZM131 16.9998C130.448 16.9998 130 17.4498 130 17.9998C130 18.5498 130.448 18.9998 131 18.9998C131.552 18.9998 132 18.5498 132 17.9998C132 17.4498 131.552 16.9998 131 16.9998Z" fill="#ABA7AF"/>
<path d="M145 31.9998C143.897 31.9998 143 31.1025 143 29.9998C143 28.8972 143.897 27.9998 145 27.9998C146.103 27.9998 147 28.8972 147 29.9998C147 31.1025 146.103 31.9998 145 31.9998ZM145 29.3332C144.632 29.3332 144.333 29.6332 144.333 29.9998C144.333 30.3665 144.632 30.6665 145 30.6665C145.368 30.6665 145.667 30.3665 145.667 29.9998C145.667 29.6332 145.368 29.3332 145 29.3332Z" fill="#ABA7AF"/>
<path d="M133.639 81.1945H86.3611C83.5372 81.1945 81.25 78.9072 81.25 76.0834V37.75H138.75V76.0834C138.75 78.9072 136.463 81.1945 133.639 81.1945Z" fill="#F5F3F7"/>
<path d="M138.75 37.7499H81.25V33.9165C81.25 31.0926 83.5372 28.8054 86.3611 28.8054H133.639C136.463 28.8054 138.75 31.0926 138.75 33.9165V37.7499Z" fill="#19B2B8"/>
<path d="M92.1111 28.8054H86.3611C83.5372 28.8054 81.25 31.0926 81.25 33.9165V37.7499H87V33.9165C87 31.0926 89.2872 28.8054 92.1111 28.8054Z" fill="#19B2B8"/>
<path d="M110 75.4345C104.6 75.4345 99.203 73.3798 95.0937 69.2705L93.7393 67.916L96.4507 65.2046L97.8051 66.559C104.531 73.2827 115.474 73.2827 122.2 66.559L123.555 65.2046L126.266 67.916L124.912 69.2705C120.797 73.3798 115.4 75.4345 110 75.4345Z" fill="#1A141F"/>
<path d="M133.639 83.111H86.3613C82.4845 83.111 79.3335 79.96 79.3335 76.0832V33.9165C79.3335 30.0398 82.4845 26.8888 86.3613 26.8888H133.639C137.516 26.8888 140.667 30.0398 140.667 33.9165V76.0832C140.667 79.96 137.516 83.111 133.639 83.111ZM86.3613 30.7221C84.6005 30.7221 83.1668 32.1558 83.1668 33.9165V76.0832C83.1668 77.844 84.6005 79.2777 86.3613 79.2777H133.639C135.4 79.2777 136.833 77.844 136.833 76.0832V33.9165C136.833 32.1558 135.4 30.7221 133.639 30.7221H86.3613Z" fill="#1A141F"/>
<path d="M81.25 35.8336H138.75V39.6669H81.25V35.8336Z" fill="#1A141F"/>
<path d="M69.1113 79.2779H150.889V83.1112H69.1113V79.2779Z" fill="#1A141F"/>
<path d="M97.2224 57.5558C94.4037 57.5558 92.1113 55.2635 92.1113 52.4447C92.1113 49.6259 94.4037 47.3336 97.2224 47.3336C100.041 47.3336 102.334 49.6259 102.334 52.4447C102.334 55.2635 100.041 57.5558 97.2224 57.5558ZM97.2224 51.1669C96.5171 51.1669 95.9447 51.7419 95.9447 52.4447C95.9447 53.1474 96.5171 53.7225 97.2224 53.7225C97.9278 53.7225 98.5002 53.1474 98.5002 52.4447C98.5002 51.7419 97.9278 51.1669 97.2224 51.1669Z" fill="#1A141F"/>
<path d="M122.778 57.5558C119.959 57.5558 117.667 55.2635 117.667 52.4447C117.667 49.6259 119.959 47.3336 122.778 47.3336C125.597 47.3336 127.889 49.6259 127.889 52.4447C127.889 55.2635 125.597 57.5558 122.778 57.5558ZM122.778 51.1669C122.073 51.1669 121.5 51.7419 121.5 52.4447C121.5 53.1474 122.073 53.7225 122.778 53.7225C123.483 53.7225 124.056 53.1474 124.056 52.4447C124.056 51.7419 123.483 51.1669 122.778 51.1669Z" fill="#1A141F"/>
<path d="M97 53.9998C98.1046 53.9998 99 53.1044 99 51.9998C99 50.8952 98.1046 49.9998 97 49.9998C95.8954 49.9998 95 50.8952 95 51.9998C95 53.1044 95.8954 53.9998 97 53.9998Z" fill="#19B2B8"/>
<path d="M123 53.9998C124.105 53.9998 125 53.1044 125 51.9998C125 50.8952 124.105 49.9998 123 49.9998C121.895 49.9998 121 50.8952 121 51.9998C121 53.1044 121.895 53.9998 123 53.9998Z" fill="#19B2B8"/>
</svg>

<svg width="220" height="110" fill="none" xmlns="http://www.w3.org/2000/svg"><path d="M85.408 19.649c17.677 0 29.816-9.157 38.333-9.157 8.518 0 26.407 4.897 26.407 44.081 0 39.185-24.066 44.935-33.434 44.935-43.872.002-62.611-79.859-31.306-79.859Z" fill="#F5F3F7"/><path d="M141.945 24.334a3.838 3.838 0 0 1-3.834-3.834 3.838 3.838 0 0 1 3.834-3.833 3.838 3.838 0 0 1 3.833 3.833 3.838 3.838 0 0 1-3.833 3.834Zm0-5.112a1.28 1.28 0 0 0-1.278 1.278 1.28 1.28 0 0 0 1.278 1.278 1.28 1.28 0 0 0 1.277-1.278 1.28 1.28 0 0 0-1.277-1.278ZM131 21c-1.654 0-3-1.346-3-3s1.346-3 3-3 3 1.346 3 3-1.346 3-3 3Zm0-4c-.552 0-1 .45-1 1s.448 1 1 1 1-.45 1-1-.448-1-1-1ZM145 32c-1.103 0-2-.898-2-2 0-1.103.897-2 2-2s2 .897 2 2c0 1.102-.897 2-2 2Zm0-2.667a.668.668 0 1 0 .667.667.668.668 0 0 0-.667-.667Z" fill="#ABA7AF"/><path d="M133.639 81.195H86.361a5.11 5.11 0 0 1-5.111-5.112V37.75h57.5v38.333a5.11 5.11 0 0 1-5.111 5.112Z" fill="#F5F3F7"/><path d="M138.75 37.75h-57.5v-3.834a5.11 5.11 0 0 1 5.111-5.11h47.278a5.11 5.11 0 0 1 5.111 5.11v3.834Z" fill="#19B2B8"/><path d="M92.111 28.805h-5.75a5.11 5.11 0 0 0-5.111 5.111v3.834H87v-3.834a5.11 5.11 0 0 1 5.111-5.11Z" fill="#19B2B8"/><path d="M110 75.434c-5.4 0-10.797-2.054-14.906-6.163l-1.355-1.355 2.712-2.711 1.354 1.354c6.726 6.724 17.669 6.724 24.395 0l1.355-1.354 2.711 2.711-1.354 1.355A21.035 21.035 0 0 1 110 75.433Z" fill="#1A141F"/><path d="M133.639 83.111H86.361a7.034 7.034 0 0 1-7.028-7.028V33.917a7.034 7.034 0 0 1 7.028-7.028h47.278a7.034 7.034 0 0 1 7.028 7.027v42.167a7.034 7.034 0 0 1-7.028 7.028ZM86.361 30.722a3.199 3.199 0 0 0-3.194 3.194v42.167a3.199 3.199 0 0 0 3.194 3.195h47.278a3.198 3.198 0 0 0 3.194-3.195V33.917a3.198 3.198 0 0 0-3.194-3.195H86.361Z" fill="#1A141F"/><path d="M81.25 35.834h57.5v3.833h-57.5v-3.833ZM69.111 79.278h81.778v3.833H69.111v-3.833ZM97.222 57.556a5.116 5.116 0 0 1-5.11-5.111 5.116 5.116 0 0 1 5.11-5.111 5.117 5.117 0 0 1 5.112 5.11 5.117 5.117 0 0 1-5.112 5.112Zm0-6.39a1.28 1.28 0 0 0-1.277 1.279 1.28 1.28 0 0 0 1.277 1.277 1.28 1.28 0 0 0 1.278-1.277 1.28 1.28 0 0 0-1.278-1.278ZM122.778 57.556a5.116 5.116 0 0 1-5.111-5.111 5.116 5.116 0 0 1 5.111-5.111 5.116 5.116 0 0 1 5.111 5.11 5.116 5.116 0 0 1-5.111 5.112Zm0-6.39a1.28 1.28 0 0 0-1.278 1.279 1.28 1.28 0 0 0 1.278 1.277 1.28 1.28 0 0 0 1.278-1.277 1.28 1.28 0 0 0-1.278-1.278Z" fill="#1A141F"/><path d="M97 54a2 2 0 1 0 0-4 2 2 0 0 0 0 4ZM123 54a2 2 0 1 0 0-4 2 2 0 0 0 0 4Z" fill="#19B2B8"/></svg>
